X: 0226
T: Lass o' Loudon- 8x32S
P: Miss Agnes Loudon
C: trad.
B: Miss Milligan's Miscellany v.2 #226
B: Originally Ours v.1 p.183 #MMM-0226
Z: 2019 John Chambers <jc:trillian.mit.edu>
M: 4/4
L: 1/16
R: strathspey
K: Bb
%
de |:\
"Bb"f3g fb3 "F/Bb"d3e df3 | "Bb"B3c Bd3 "F/Bb"F3G Fd3 |\
"C/Eb"e3d eg3 "D/Bb"fd3 c2B | "Cm"G3c edcB "F7"Ac3 c2de |
"Bb"f3g fb3 "F/Bb"d3e df3 | "D/Bb"B3c Bd3 "Bb"F3G FD3 |\
"Eb"EGBe gb3 "Bb"fd3 "Cm"c3g | "Bb"f3d "F7"edcB "Bb"F2B2 B2DE ||
"Bb"F3D FB3 "Eb"GE3 "Cm"c3d | "C7"e3d c3B "F7"Ac3 c2DE |\
"Bb"F3D FB3 "Eb"GE3 "G7"g3f | "Cm"e3d "F7"c3B "Bb"FB3 B2DE |
"Bb"F3D FB3 "Eb"GE3 "Cm"c3d | "C7"e3d c3B "F"Ac3 c2BA |\
"Eb"GE3 "G7"g3f "Cm"e2c2 "C7"c2B2 |1 "F"ABcA "F7"F3e "Bb"dB3 B2de :|\
[2 "F"ABcA "F7"Fe3 "Bb"dB3 B4 |]
